X:1
T:When Our Lord Shall Come Again
T:R. L. Ferguson
T:When Our Lord Shall Come Again
T:Public Domain
T:Public Domain
T:Public Domain
C:R. L. Ferguson
Z:Public Domain
%%score ( 1 2 ) ( 3 4 )
L:1/8
M:4/4
K:G
V:1 treble 
V:2 treble 
V:3 bass 
V:4 bass 
V:1
 DG | (G2 G2 [GB])[GB][GB][FA] | [FA]([EG-]EE EE)GG | E2 E2 [EG][EA][EG][CE] | (B,B,B,B, B,2) DG | %5
w: 1.~When up-|on * * the clouds of|en, Christ * * * * * shall|to earth a- gain, Will the|* * * * * world *|
w: 2.~Will His|com- * * ing bring re-|ing? Or * * * * * will|bring tears and pain? Are you|* * * * * rea- *|
w: 3.~Will you|join * * in la- men-|tion? Or * * * * * the|gel’s glad re- frain? Will you|* * * * * help *|
w: 4.~Work and|pray * * till Je- sus|you, Help * * * * * to|ther in the grain; Then with|* * * * * joy *|
 (G2 G2 [GB])[GB][GB][FA] | [FA]([EG-]EE EE)GA | (G2 G2 [GB])G [GB]>[FA] | (GD E>E D2) || %9
w: glad * * to see Him,|our Lord * * * * * shall|a- * * gain? * *||
w: to * * re- ceive Him,|our Lord * * * * * shall|a- * * gain? There’ll be|there’ll * * * *|
w: peo- * * ple crown Him,|our Lord * * * * * shall|a- * * gain? * *||
w: meet * * the Sav- ior|our Lord * * * * * shall|a- * * gain. * *||
"^Refrain" (3(GA)B | d<(d- G>G G<G) [GB]>[GB] | [FA]<([DG-] E<E D<D) G>G | %12
w: |||
w: shout- * *|ing There’ll * * * * be sor-|row, there’ll * * * * * be|
w: |||
w: |||
 G<(G- E>E E<E) [EG]>[EA] | (F>F F>F F2) (3(GA)B | d<(d- G>G G<G) | [GB]>[GB] | %16
w: ||||
w: There’ll be * * * * weep- ing,|be * * * * pray- * ing,|our Lord * * * *|shall come|
w: ||||
w: ||||
 [FA]<(D E>E E<[EG]) GA | (z2 GG) [GB]G [GB]>[FA] | (G>D E>E [DG]2) |] %19
w: |||
w: a- gain. * * * * * *|||
w: |||
w: |||
V:2
 x2 | B4- x4 | x2 G4 x2 | G4- x4 | D6 x2 | B4- x4 | x2 G4 x2 | B4- G x3 | G6 || x2 | x2 d4 x2 | %11
w: |heav-|come||be|When|come|||||
w: |joic-|it||dy|When|come|sing- ing,|be|||
w: |ta-|an-||His|When|come|||||
w: |calls|ga-||you’ll|When|come|||||
 x2 G4 x2 | x2 G4 x2 | B6 x2 | x2 d4 | x2 | x/ G4- x7/2 | (B4- G) x3 | G4- x2 |] %19
w: ||||||||
w: pain;|there’ll|When||||||
w: ||||||||
w: ||||||||
V:3
 z2 | ([G,D]2 [G,D]2 [G,D])[G,D][G,D][D,C] | [E,B,]([E,B,][E,B,][E,B,] [E,B,][E,B,]) z2 | %3
w: |~ * * ~ ~ ~|~ ~ * * * *|
 ([C,C]2 [C,C]2 [C,C])[C,C][C,C]([C,G,] | [G,,G,][G,,G,][B,,G,][D,G,] G,2) z2 | %5
w: ~ * * ~ ~ ~||
 ([G,D]2 [G,D]2 [G,D])[G,D][G,D][D,C] | [E,B,]([E,B,][E,B,][E,B,] [E,B,][E,B,]) z2 | %7
w: ~ * * ~ ~ ~|~ ~ * * * *|
 ([D,D]2 [D,D]2 [D,D])[D,B,] [D,D]>[D,C] | (B,B, C>C B,2) || z2 | %10
w: ~ * * ~ ~ ~|There’ll * * * *||
 z2 [G,B,]>[G,B,] [G,B,]<[G,B,] [G,D]>[G,D] | [D,C]<[G,B,] [G,C]<[G,C] [G,B,]<[G,B,] z2 | %12
w: sing- ing, there’ll be shout- ing,|shout- ing, shout- ing There’ll be|
 z2 [E,B,]>[E,B,] [E,B,]<[E,B,] [E,B,]>[C,E] | [B,,^D]>[B,,D] [B,,D]>[B,,D] [B,,D]2 z2 | %14
w: sor- row, there’ll be pain, heart|rend- ing pain; There’ll be|
 z2 [G,B,]>[G,B,] [G,B,]<[G,B,] | [G,D]>[G,D] | [D,C]<[G,B,] [E,B,]>[E,B,] [C,C]<([C,C] B,,C,) | %17
w: weep- ing, ~ ~|~ ~|there’ll be pray- ing, When our * *|
 z2 D(D [D,D][D,B,] [D,D]>[D,C]) | B,>B, C>C [G,,G,B,]2 |] %19
w: Lord shall * * * *|* a- gain. * *|
V:4
 x2 | x8 | x8 | x8 | x4 G,2 x2 | x8 | x8 | x8 | [G,,G,]6 || x2 | x8 | x8 | x8 | x8 | x6 | x2 | x8 | %17
w: ||||~||||be|||||||||
 D,4- x4 | [G,,G,]4- x2 |] %19
w: come||

